!!!COM: Palestrina, Giovanni Perluigi da
!!!OPR: Missa Aspice Domine
!!!OMD: Credo
!!!OTL: Crucifixus
**kern	**kern	**kern	**kern
*Ibass	*Itenor	*Icalto	*Icant
!Bassus	!Tenor	!Altus	!Cantus
*clefF4	*clefGv2	*clefG2	*clefG2
*k[]	*k[]	*k[]	*k[]
*D:dor	*D:dor	*D:dor	*D:dor
*M4/2	*M4/2	*M4/2	*M4/2
=82	=82	=82	=82
0r	0r	1r	1.a
.	.	[1d	.
.	.	.	2a
=83	=83	=83	=83
0r	0r	2d]	1dd
.	.	2d	.
.	.	1a	1cc
=84	=84	=84	=84
0r	0r	1f	1.ff
.	.	[1b-	.
.	.	.	2ee
=85	=85	=85	=85
0r	0r	2b-]	2dd
.	.	2a	2cc
.	.	2g	4b
.	.	.	4cc
.	.	2f	[2dd
=86	=86	=86	=86
0r	1.A	1e	2dd]
.	.	.	4cc
.	.	.	4b
.	.	2e	4cc
.	.	.	4dd
.	2A	2c	[2ee
=87	=87	=87	=87
1.D	0d	0f	2ee]
.	.	.	4dd
.	.	.	4cc#
.	.	.	1dd
2D	.	.	.
=88	=88	=88	=88
1A	1c	2e	1ee
.	.	2.a	.
1F	[1f	.	1r
.	.	4g	.
.	.	4f	.
.	.	4e	.
=89	=89	=89	=89
1.B-	2f]	2d	0r
.	2e	2e	.
.	2d	2f	.
2A	2c	2f	.
=90	=90	=90	=90
2G	4B	0g	0r
.	4c	.	.
2F	1d	.	.
1E	.	.	.
.	2c#	.	.
=91	=91	=91	=91
1D	2.d	1f	2r
.	.	.	2a
.	8c	.	.
.	8B	.	.
1r	[1A	2r	2.cc
.	.	2a	.
.	.	.	4dd
=92	=92	=92	=92
0r	1A]	2.cc	2ee
.	.	.	4a
.	.	4b	4b
.	1r	2a	4cc
.	.	.	4dd
.	.	2g	2ee
=93	=93	=93	=93
1r	1r	4f	4dd
.	.	4e	4cc
.	.	2.a	4cc
.	.	.	8b
.	.	.	8a
1E	2r	.	1b
.	.	8g	.
.	.	8f#	.
.	2e	2g#	.
=94	=94	=94	=94
2.F	2c	2a	1a
.	2f	2A	.
4G	.	.	.
[1A	1e	2.c	2r
.	.	.	2a
.	.	4d	.
=95	=95	=95	=95
1A]	2r	[0e	2.cc
.	2A	.	.
.	.	.	4b
1A	2.c	.	1a
.	4d	.	.
=96	=96	=96	=96
2.c	2e	0e]	2g
.	4A	.	1cc
4B	4B	.	.
2A	4c	.	.
.	4d	.	.
2G	2e	.	[2b
=97	=97	=97	=97
1F	4d	1A	4b]
.	4c	.	4a
.	4c	.	1a
.	8B	.	.
.	8A	.	.
1E	1B	1e	.
.	.	.	2g#
=98	=98	=98	=98
1r	1A	1e	1a
1D	1f	1a	1dd
=99	=99	=99	=99
0A	1e	1.a	2cc
.	.	.	1cc
.	[1c	.	.
.	.	2cc	2a
=100	=100	=100	=100
1.A	2c]	2a	2.cc
.	2A	2.cc	.
.	.	.	4dd
.	1c	.	2ee
.	.	4b-	.
2A	.	4a	[2ff
.	.	4g	.
=101	=101	=101	=101
1B-	1d	2f	4ff]
.	.	.	4ee
.	.	2g	1dd
1A	1e	1a	.
.	.	.	2cc#
=102	=102	=102	=102
0D	0d	2r	1dd
.	.	2a	.
.	.	2f	2r
.	.	2d	2dd
=103	=103	=103	=103
0r	0r	1.a	2cc
.	.	.	2a
.	.	.	2cc
.	.	2b	2dd
=104	=104	=104	=104
0r	0r	2.cc	2.ee
.	.	4b	4dd
.	.	2g	2ee
.	.	[2a	[2ff
=105	=105	=105	=105
1A	1r	4a]	4ff]
.	.	4g	4ee
.	.	2e	1ee
2F	2r	1f	.
2D	2d	.	2dd
=106	=106	=106	=106
1A	2c	1e	2.ee
.	2A	.	.
.	.	.	4dd
2r	2c	1r	2cc
2B	2d	.	4b
.	.	.	4a
=107	=107	=107	=107
2.c	2.e	0r	1g
4B	4d	.	.
2G	2e	.	1r
[2A	[2f	.	.
=108	=108	=108	=108
4A]	4f]	1r	0r
4G	4e	.	.
2E	1e	.	.
1F	.	2r	.
.	2d	[2a	.
=109	=109	=109	=109
1E	1e	4a]	2r
.	.	8g	.
.	.	8f#	.
.	.	2g#	2ee
1r	1r	2a	2ff
.	.	2b-	2dd
=110	=110	=110	=110
0r	1r	2a	1ff
.	.	4f	.
.	.	4g	.
.	2r	4a	1ee
.	.	4b	.
.	2e	[2cc	.
=111	=111	=111	=111
0r	2f	4cc]	2a
.	.	4a	.
.	2d	2b-	2.ff
.	1f	[1a	.
.	.	.	4ee
.	.	.	[2dd
=112	=112	=112	=112
1A	1e	0a]	2dd]
.	.	.	4cc
.	.	.	4b
2A	2A	.	2cc#
2D	2a	.	[2dd
=113	=113	=113	=113
2F	2a	0r	4dd]
.	.	.	4cc
2G	2d	.	2b-
2.A	2f	.	1a
.	4e	.	.
4B	4d	.	.
=114	=114	=114	=114
4c	4e	0r	0r
4d	4f	.	.
2.e	2.g	.	.
4d	4f	.	.
[2d	2f	.	.
=115	=115	=115	=115
2d]	1e	2r	1r
2c#	.	2a	.
1d	2.f	2a	2r
.	.	2d	2dd
.	4e	.	.
=116	=116	=116	=116
0r	1d	2.f	2dd
.	.	.	2a
.	.	4g	.
.	1r	2a	2cc
.	.	2b	2dd
=117	=117	=117	=117
0r	2r	2.cc	2.ee
.	2a	.	.
.	.	4b	4dd
.	2a	4cc	2ee
.	.	4b	.
.	2d	4a	[2ff
.	.	4g	.
=118	=118	=118	=118
0r	2f	2a	4ff]
.	.	.	4ee
.	2g	2.b	2.dd
.	1a	.	.
.	.	4a	4cc
.	.	[2a	4cc
.	.	.	8b
.	.	.	8a
=119	=119	=119	=119
1r	1e	2a]	1b
.	.	2g	.
2r	1A	2f	[1a
2A	.	4e	.
.	.	4d	.
=120	=120	=120	=120
2A	2r	2e	0a]
2D	2d	2f	.
2.F	2d	2r	.
.	2A	2a	.
4G	.	.	.
=121	=121	=121	=121
1.A	1.c	2a	0r
.	.	2e	.
.	.	2f	.
2B	2d	2g	.
=122	=122	=122	=122
2c	2e	2a	1r
2d	2f#	2a	.
1G	2g	2b-	2r
.	2d	2b-	2dd
=123	=123	=123	=123
1d	2.f	2.a	2dd
.	.	.	2a
.	4f	4a	.
1r	2e	2g	1cc
.	[2f	[2a	.
=124	=124	=124	=124
0r	2f]	2a]	2dd
.	2e	2g	2ee
.	1d	2a	1ff
.	.	2b	.
=125	=125	=125	=125
2r	2c	1cc	2ee
2A	2c	.	2ee
2A	2c	[1a	2ee
2D	2d	.	[2ff
=126	=126	=126	=126
4F	4A	1a]	2ff]
4G	4B	.	.
4A	4c	.	2.ee
4B	4d	.	.
1c	4e	2g	.
.	4f	.	4dd
.	[2g	2e	4cc
.	.	.	4b
=127	=127	=127	=127
1d	4g]	1f	2.a
.	4f	.	.
.	1f	.	.
.	.	.	4b
1c	.	2.g	2cc
.	2e	.	2cc
.	.	4g	.
=128	=128	=128	=128
1F	0f	2f	1a
.	.	1c	.
1F	.	.	1a
.	.	[2d	.
=129	=129	=129	=129
1G	0r	2d]	1b
.	.	1e	.
1A	.	.	1cc
.	.	2e	.
=130	=130	=130	=130
2A	1r	2e	1cc
2A	.	2e	.
2A	1c	2e	1r
2A	.	[2f	.
=131	=131	=131	=131
1B-	1d	4f]	0r
.	.	4e	.
.	.	1d	.
[1A	1e	.	.
.	.	4c	.
.	.	4B	.
=132	=132	=132	=132
1A]	2e	2c	1r
.	2e	2A	.
1A	2e	1a	1cc
.	2e	.	.
=133	=133	=133	=133
1d	1f	2r	1dd
.	.	2f	.
1c	2.e	1g	1ee
.	4d	.	.
=134	=134	=134	=134
2A	4c	1a	2ee
.	4B	.	.
2A	2c	.	2ee
2c	1A	2a	2ee
2c	.	2a	2ee
=135	=135	=135	=135
1d	1r	2a	1ff
.	.	2b	.
1A	2r	1cc	1ee
.	2c	.	.
=136	=136	=136	=136
0r	1d	2b	2.dd
.	.	1a	.
.	.	.	4cc
.	1e	.	4b
.	.	.	4a
.	.	4g	[2b
.	.	4f#	.
=137	=137	=137	=137
0r	2e	2g	2b]
.	2e	1cc	1a
.	2e	.	.
.	2e	[2b	2g#
=138	=138	=138	=138
1r	1f	4b]	2a
.	.	4a	.
.	.	1a	2a
1E	2e	.	2cc
.	2e	4g	2b
.	.	4f#	.
=139	=139	=139	=139
1.E	2c	1g	2.ee
.	2B	.	.
.	.	.	4dd
.	2.e	2g	2cc
2E	.	[2e	[2b
.	4d	.	.
=140	=140	=140	=140
1F	2c	4e]	4b]
.	.	4c	4a
.	4B	2d	1a
.	4A	.	.
1E	1B	1e	.
.	.	.	2g#
=141	=141	=141	=141
[0A	[0c#	[0e	[0a
=142	=142	=142	=142
0A]	0c#]	0e]	0a]
*-	*-	*-	*-
!!!CDT: 1525/^1526/-1594/2/2
!!!OCY: Italia
!!!AGN: Mass (Parody)
!!!AST: renaissance, vocal
!!!ASW: Motet (Jacquet)
!!!PWK: Masses, Book 2
!!!RNB: Cadence finals: A
!!!YOR: Le Opere Complete, v. 4, p. 91
!!!YOO: Rome, Italy: Fratelli Scalera
!!!END: 1992//
!!!EED: John Miller
!!!YEC: Copyright 2000, John Miller
!!!YEN: United States of America
!!!YEM: Rights to all derivative electronic formats reserved.
!!!YEM: Refer to licensing agreement for further details.
!!!YEM: This file must be accompanied by the licensing agreement.
!!!YEM: A copy of the licensing agreement may be found at http://www.music-cog.ohio-state.edu/HumdrumDatabases/Palestrina/license.txt
!!!EMD: converted to Humdrum by Bret Aarden
